X: 41
T: Jako na puszczy prędkimi psy szczwana
C: Mikołaj Gomółka
%%abc-version 2.0
%%abcx-abcm2ps-target-version 5.9.1 (29 Sep 2008)
%%abc-creator hum2abc beta
%%abcx-conversion-date 2021/10/04 07:59:09
%%abc-edited-by Marta Lawrence
%%abcx-initial-encoding-date 2020-02-08
%%humdrum-veritas 1233736392
%%humdrum-veritas-data 1489796337
%%linebreak <none>
%%barnumbers 0
L: 1/4
M: C|
N: Derived from pl-wn--sd-xvi-qu-273--042_gomolka-mikolaj--jako-na-puszczy-predkimi-psy-szczwana.krn
%%staves [1 2 3 4]
V: 1 clef=treble
V: 2
V: 3 clef=alto
V: 4
K: Bb
[V:1] A4F2G3 [|] 
[V:2] D4D2D2 [|] 
[V:3] A,4A,2B,4 [|] 
[V:4] D,4D,2G,4 [|] 
[V:1] AB2A2d4 [|] 
[V:2] D4D2G2 [|] 
[V:3] A,G,A,2B,C [|] 
[V:4] G,2^F,2G,2 [|] 
[V:1] d2^c2d2 [|] 
[V:2] A4A2A2 [|] 
[V:3] D=EF2E2D2 [|] 
[V:4] D,2D,2A,2^F,2 [|] 
[V:1] B4A2d2 [|] 
[V:2] G4^F2A4 [|] 
[V:3] D4D2F4 [|] 
[V:4] G,4D,2D4 [|] 
[V:1] f2=ede2^f2 [|] 
[V:2] A2A2A2 [|] 
[V:3] F2=E2D2 [|] 
[V:4] D2^C2D2 [|] 
[V:1] g2d2>=c2d=e [|] 
[V:2] B2B2AGAB [|] 
[V:3] G2G2F=EFG [|] 
[V:4] G,2G,2D,4 [|] 
[V:1] =f2>=e2d2^c2 [|] 
[V:2] c2>B2A3G [|] 
[V:3] A2>G2F3=E [|] 
[V:4] z2=F,2>G,2A,2 [|] 
[V:1] d2f2d2d2 [|] 
[V:2] =F2A2B2B2 [|] 
[V:3] D2D2>=E2F2 [|] 
[V:4] D,2D,2B,,2B,,2 [|] 
[V:1] e4d2=c4 [|] 
[V:2] B4B2A4 [|] 
[V:3] G4F2F4 [|] 
[V:4] =E,4B,,2F,4 [|] 
[V:1] f2=eddc/B/ [|] 
[V:2] A2A2G2 [|] 
[V:3] F2C2D2 [|] 
[V:4] D,2A,2B,2 [|] 
[V:1] cd2cd2zA [|] 
[V:2] A2>G2F2zD [|] 
[V:3] =E4D2zF, [|] 
[V:4] A,4D,2zD, [|] 
[V:1] F2G2B4 [|] 
[V:2] D2D2D3=E [|] 
[V:3] A,2B,2B,3C [|] 
[V:4] D,2G,4G,,2 [|] 
[V:1] A32 |]  
[V:2] ^F32 |]  
[V:3] D32 |]  
[V:4] D,32 |]  


